apps/site/public/mcp/logos/claude-code.svg

<svg xmlns="http://www.w3.org/2000/svg" fill="none" viewBox="0 0 48 48" height="48" width="48">
<path fill="white" d="M11.7437 30.6321L19.6798 26.1937L19.8126 25.8069L19.6798 25.5931H19.2917L17.9639 25.5117L13.429 25.3895L9.49673 25.2267L5.68702 25.0231L4.72693 24.8195L3.82812 23.6386L3.92005 23.0482L4.72693 22.5087L5.88108 22.6105L8.4345 22.7835L12.2646 23.0482L15.0428 23.2111L19.1589 23.6386H19.8126L19.9045 23.374L19.6798 23.2111L19.5062 23.0482L15.5432 20.371L11.2535 17.541L9.00647 15.9123L7.79104 15.0877L7.17822 14.3141L6.91266 12.6242L8.01574 11.4129L9.49673 11.5147L9.87464 11.6165L11.3761 12.7668L14.5832 15.2404L18.7708 18.3147L19.3836 18.8236L19.6287 18.6506L19.6594 18.5284L19.3836 18.0704L17.1059 13.968L14.6751 9.79429L13.5924 8.06375L13.3064 7.02543C13.2043 6.59788 13.1328 6.24159 13.1328 5.80387L14.3891 4.10387L15.0836 3.87991L16.7587 4.10387L17.4634 4.71465L18.5052 7.08651L20.1905 10.8224L22.8052 15.9021L23.5712 17.4087L23.9798 18.8033L24.133 19.2308H24.3985V18.9865L24.613 16.126L25.0113 12.6141L25.3995 8.09429L25.5322 6.82183L26.1655 5.29489L27.4218 4.47033L28.4023 4.9386L29.2092 6.0889L29.0968 6.83201L28.6168 9.93681L27.6771 14.8027L27.0643 18.0602H27.4218L27.8303 17.653L29.4849 15.4644L32.2631 12.0033L33.4887 10.629L34.9186 9.11226L35.8379 8.3895H37.5742L38.8509 10.2829L38.2789 12.2374L36.4915 14.4973L35.0106 16.4111L32.8861 19.2614L31.5583 21.5416L31.6809 21.7249L31.9975 21.6943L36.798 20.6763L39.3922 20.2081L42.487 19.6787L43.8863 20.3302L44.0395 20.9919L43.4879 22.3458L40.1787 23.1602L36.2975 23.9338L30.5165 25.2979L30.445 25.3488L30.5267 25.4506L33.1312 25.6949L34.2445 25.756H36.9716L42.0478 26.1326L43.3756 27.0081L44.1722 28.077L44.0395 28.8913L41.9967 29.9297L39.239 29.2782L32.8044 27.7512L30.5982 27.2015H30.2918V27.3847L32.1303 29.1764L35.5008 32.2099L39.7191 36.1189L39.9336 37.086L39.3922 37.8494L38.8203 37.768L35.1127 34.9889L33.6828 33.7368L30.445 31.0189H30.2305V31.3039L30.9761 32.3931L34.9186 38.2973L35.1229 40.1093L34.8369 40.6997L33.8156 41.056L32.692 40.8524L30.3837 37.6255L28.004 33.9913L26.0838 30.7338L25.8489 30.8662L24.7151 43.0309L24.184 43.6518L22.9584 44.1201L21.937 43.3464L21.3957 42.0943L21.937 39.6207L22.5907 36.3937L23.1218 33.8285L23.6019 30.6422L23.8878 29.5835L23.8674 29.5123L23.6325 29.5428L21.2221 32.841L17.5553 37.7782L14.6546 40.8728L13.9601 41.1476L12.7549 40.5267L12.8673 39.4171L13.5414 38.4297L17.5553 33.3398L19.976 30.1841L21.5387 28.362L21.5285 28.0973H21.4365L10.7734 34.9991L8.87369 35.2434L8.0566 34.48L8.15873 33.2279L8.54686 32.8207L11.754 30.6219L11.7437 30.6321Z"></path>
</svg>

<svg xmlns="http://www.w3.org/2000/svg" width="48" height="48" fill="none" viewBox="0 0 48 48"><path fill="#fff" d="m11.744 30.632 7.936-4.438.133-.387-.133-.214h-.388l-1.328-.081-4.535-.122-3.932-.163-3.81-.204-.96-.203-.899-1.181.092-.59.807-.54 1.154.101 2.553.174 3.83.264 2.779.163 4.116.428h.654l.091-.265-.224-.163-.174-.163-3.963-2.677-4.29-2.83-2.247-1.629-1.215-.824-.613-.774-.265-1.69 1.103-1.211 1.48.102.379.101 1.501 1.15 3.207 2.474 4.188 3.075.613.509.245-.173.03-.123-.275-.458-2.278-4.102-2.43-4.174-1.084-1.73-.286-1.039c-.102-.427-.173-.783-.173-1.221l1.256-1.7.695-.224 1.675.224.704.61 1.042 2.373 1.686 3.735 2.614 5.08.766 1.507.409 1.394.153.428h.265v-.245l.215-2.86.398-3.512.389-4.52.132-1.272.634-1.527 1.256-.825.98.469.807 1.15-.112.743-.48 3.105-.94 4.866-.613 3.257h.358l.408-.407 1.655-2.189 2.778-3.46 1.226-1.375 1.43-1.517.919-.723h1.736l1.277 1.894-.572 1.954-1.788 2.26-1.48 1.914-2.125 2.85-1.328 2.28.123.184.316-.03 4.801-1.019 2.594-.468 3.095-.53 1.4.652.152.662-.551 1.354-3.31.814-3.88.774-5.782 1.364-.071.05.082.103 2.604.244 1.114.061h2.727l5.076.377 1.328.875.796 1.069-.133.814-2.042 1.039-2.758-.652-6.435-1.527-2.206-.55h-.306v.184l1.838 1.791 3.37 3.034 4.22 3.909.214.967-.542.763-.572-.081-3.707-2.78-1.43-1.251-3.238-2.718h-.215v.285l.746 1.09 3.943 5.903.204 1.812-.286.59-1.021.357-1.124-.204-2.308-3.226-2.38-3.635-1.92-3.257-.235.132-1.134 12.165-.531.62-1.226.47-1.021-.775-.541-1.252.541-2.473.654-3.227.53-2.565.48-3.187.287-1.058-.02-.072-.235.03-2.41 3.299-3.668 4.937-2.9 3.095-.695.275-1.205-.621.112-1.11.674-.987 4.014-5.09 2.421-3.156 1.563-1.822-.01-.265h-.093L10.773 35l-1.9.244-.816-.763.102-1.252.388-.407 3.207-2.2z"/></svg>
